Hatter-kde/actions/16/edit-select-invert.svg

<?xml version="1.0" encoding="UTF-8"?>
<svg viewBox="0 0 16 16" xmlns="http://www.w3.org/2000/svg">
 <defs id="defs3051">
  <style id="current-color-scheme" type="text/css">.ColorScheme-Text {
        color:#363636;
      }</style>
 </defs>
 <path class="ColorScheme-Text" d="m2 2v12l3.1562-3.1562c-0.72386-0.72386-1.1562-1.7392-1.1562-2.8438 0-2.2091 1.7909-4 4-4 1.1046 0 2.1199 0.43239 2.8438 1.1562l3.1562-3.1562h-12zm8.8438 3.1562-5.6875 5.6875c0.72386 0.72386 1.7392 1.1562 2.8438 1.1562 2.2091 0 4-1.7909 4-4 0-1.1046-0.43239-2.1199-1.1562-2.8438z" fill="currentColor"/>
</svg>

<svg xmlns="http://www.w3.org/2000/svg" viewBox="0 0 16 16">
  <defs id="defs3051">
    <style type="text/css" id="current-color-scheme">
      .ColorScheme-Text {
        color:#363636;
      }
      </style>
  </defs>
 <path style="fill:currentColor;fill-opacity:1;stroke:none" 
     d="M 2 2 L 2 14 L 5.15625 10.84375 C 4.43239 10.11989 4 9.10457 4 8 C 4 5.79086 5.79086 4 8 4 C 9.10457 4 10.11989 4.43239 10.84375 5.15625 L 14 2 L 2 2 z M 10.84375 5.15625 L 5.15625 10.84375 C 5.88011 11.56761 6.89543 12 8 12 C 10.20914 12 12 10.20914 12 8 C 12 6.89543 11.56761 5.88011 10.84375 5.15625 z "
     class="ColorScheme-Text"
     />
</svg>
